X: 38007
T: Speed The Plough
R: reel
M: 4/4
K: Amajor
E|:A2Ac efec|eaec efec|dfdB cecA|FBBA GBBc|
ABcd efec|eaga faec|decd BcAB|1 FAGB A2 A:|2 FAGB A2 (3efg||
|:a2ag aAce|aAgA fAeA|dfdB cecA|FBBA GBBe|
(3cBA eA fAeA|fgaf ecAc|decd BcAB|1 FAGB A2 (3efg:|2 FAGB A2 AE||

